X:1
T:Laudes Christi, 77.77.77
T:Laudes Christi, 77.77.77
T:Robert Riach Thom, 1893
T:Public Domain Courtesy of the Cyber Hymnal™
C:Robert Riach Thom, 1893
Z:Public Domain
Z:Courtesy of the Cyber Hymnal™
%%score ( 1 2 ) ( 3 4 )
L:1/8
Q:1/4=115
M:4/4
K:G
V:1 treble 
V:2 treble 
V:3 bass 
V:4 bass 
V:1
 G3 [GA] [GB]2 [Gd]2 | [GA]2 [FB]2 G4 | [DB]3 [DA] [DG]2 E2 | c2 [GB]2 [FA]4 | %4
 [GB]3 [Ac] [Bd]2 [GB]2 | [FA]2 [EG]2 [DF]4 | G2 [FA]2 [GB]2 [Gc]2 | [GB]2 [FA]2 G4 | %8
 [Dd]2 [Fc]2 [GB]2 [FA]2 | G2 [FA]2 [GB]4 | [Gc]2 [=Fd]2 [Ee]2 [GB]2 | [GA]2 [FA]2 G4 |] %12
V:2
 G3 x5 | x4 G4 | x6 E2 | (EF) x6 | x8 | x8 | G2 x6 | x4 G4 | x8 | G2 x6 | x8 | x4 G4 |] %12
V:3
 [G,B,]3 [G,C] [G,D]2 [B,,D]2 | [D,C]2 [D,D]2 [G,B,]4 | [G,,B,]3 [A,,C] [B,,D]2 [C,G,]2 | %3
 [A,,A,]2 ([B,,D]C,) [D,D]4 | [G,D]3 [G,C] [G,B,]2 [G,D]2 | [A,D]2 [A,,^C]2 ([D,D]2 =C,2) | %6
 [B,,D]2 [A,,C]2 [G,,B,]2 [C,E]2 | [D,D]2 [D,C]2 [G,B,]4 | [F,A,]2 [D,D]2 [G,D]2 [A,D]2 | %9
 [B,D]2 [A,D]2 D4 | [E,C]2 [D,B,]2 [C,C]2 [G,D]2 | (DA,) [D,C]2 [G,,B,]4 |] %12
V:4
 x8 | x8 | x8 | x8 | x8 | x6 =C,2 | x8 | x8 | x8 | x4 (G,2 =F,2) | x8 | D,2 x6 |] %12

